docs/public/static/images/examples/preact.svg

<svg width="40" height="40" viewBox="0 0 40 40" fill="none" xmlns="http://www.w3.org/2000/svg">
<path d="M19.7617 1.52441L35.7617 10.7621V29.2376L19.7617 38.4753L3.76172 29.2376V10.7621L19.7617 1.52441Z" fill="white"/>
<path d="M4.04743 10.9271L19.7617 1.85433L35.476 10.9271V29.0727L19.7617 38.1454L4.04743 29.0727V10.9271Z" stroke="black" stroke-opacity="0.5" stroke-width="0.57143"/>
<path d="M8.61357 28.7093C10.454 31.0649 16.9364 29.0755 23.0925 24.2659C29.2485 19.4562 32.747 13.6475 30.9066 11.2919C29.0662 8.9362 22.5837 10.9256 16.4277 15.7353C10.2716 20.545 6.77316 26.3536 8.61357 28.7093Z" stroke="#673AB8" stroke-width="1.44339" stroke-dasharray="34.67 5.65"/>
<path d="M30.9085 28.7097C32.7489 26.3541 29.2504 20.5454 23.0944 15.7358C16.9383 10.9261 10.4559 8.93672 8.61553 11.2923C6.77509 13.648 10.2736 19.4567 16.4296 24.2663C22.5856 29.076 29.068 31.0654 30.9085 28.7097Z" stroke="#673AB8" stroke-width="1.44339" stroke-dasharray="35.08 5.25"/>
<path d="M19.7642 22.4539C21.1194 22.4539 22.218 21.3553 22.218 20.0001C22.218 18.645 21.1194 17.5464 19.7642 17.5464C18.4091 17.5464 17.3105 18.645 17.3105 20.0001C17.3105 21.3553 18.4091 22.4539 19.7642 22.4539Z" fill="#673AB8"/>
</svg>

<svg width="40" height="40" fill="none" xmlns="http://www.w3.org/2000/svg"><path d="m19.762 1.524 16 9.238v18.476l-16 9.237-16-9.237V10.762l16-9.238Z" fill="#fff"/><path d="m4.047 10.927 15.715-9.073 15.714 9.073v18.146l-15.714 9.072-15.715-9.072V10.927Z" stroke="#000" stroke-opacity=".5" stroke-width=".571"/><path d="M8.614 28.71c1.84 2.355 8.322.366 14.479-4.444 6.155-4.81 9.654-10.618 7.814-12.974-1.84-2.356-8.323-.366-14.48 4.443-6.155 4.81-9.654 10.619-7.813 12.974Z" stroke="#673AB8" stroke-width="1.443" stroke-dasharray="34.67 5.65"/><path d="M30.909 28.71c1.84-2.356-1.659-8.165-7.815-12.974-6.156-4.81-12.638-6.8-14.478-4.444-1.84 2.356 1.658 8.165 7.814 12.974 6.156 4.81 12.638 6.8 14.479 4.444Z" stroke="#673AB8" stroke-width="1.443" stroke-dasharray="35.08 5.25"/><path d="M19.764 22.454a2.454 2.454 0 1 0 0-4.908 2.454 2.454 0 0 0 0 4.908Z" fill="#673AB8"/></svg>
